symbols/web/soap/materialsymbolsoutlined/soap_grad200fill1_48px.svg

<svg xmlns="http://www.w3.org/2000/svg" height="48" width="48"><path d="M29.25 15.35q.8 0 1.425-.625t.625-1.475q0-.8-.625-1.425T29.25 11.2q-.85 0-1.475.625-.625.625-.625 1.425 0 .85.625 1.475.625.625 1.475.625Zm0 2.15q-1.8 0-3.025-1.225Q25 15.05 25 13.25q0-1.75 1.225-2.975T29.25 9.05q1.75 0 2.975 1.225t1.225 2.975q0 1.8-1.225 3.025Q31 17.5 29.25 17.5Zm11.55-4.25q.65 0 1.1-.475.45-.475.45-1.075 0-.65-.45-1.1-.45-.45-1.1-.45-.6 0-1.075.45t-.475 1.1q0 .6.475 1.075t1.075.475Zm.05 2.15q-1.55 0-2.65-1.1-1.1-1.1-1.1-2.6 0-1.55 1.1-2.625T40.8 8q1.55 0 2.625 1.075T44.5 11.65q0 1.55-1.075 2.65-1.075 1.1-2.575 1.1ZM33.95 7q-1.1 0-1.875-.775Q31.3 5.45 31.3 4.35q0-1.15.775-1.9t1.875-.75q1.15 0 1.9.775t.75 1.875q0 1.1-.775 1.875Q35.05 7 33.95 7ZM7.05 47.35q-2.5 0-4.275-1.75Q1 43.85 1 41.35V28.7q0-1.25.5-2.375T2.95 24.3L17.8 10.2l2.1 2.25q.4.5.45 1.125.05.625-.25 1.175l-3.3 5.85h21.35q.95 0 1.575.7t.625 1.65q0 1-.675 1.675T38 25.3H23.55v2.65H42.2q1 0 1.675.7t.675 1.7q0 .95-.675 1.625t-1.675.675H23.55v2.65H40.1q1 0 1.675.7t.675 1.7q0 .95-.675 1.625T40.1 40H23.55v2.65H35.9q1 0 1.675.7t.675 1.7q0 .95-.675 1.625t-1.675.675Z"/></svg>

<svg xmlns="http://www.w3.org/2000/svg" height="48" width="48"><path d="M29.25 15.35Q30.05 15.35 30.675 14.725Q31.3 14.1 31.3 13.25Q31.3 12.45 30.675 11.825Q30.05 11.2 29.25 11.2Q28.4 11.2 27.775 11.825Q27.15 12.45 27.15 13.25Q27.15 14.1 27.775 14.725Q28.4 15.35 29.25 15.35ZM29.25 17.5Q27.45 17.5 26.225 16.275Q25 15.05 25 13.25Q25 11.5 26.225 10.275Q27.45 9.05 29.25 9.05Q31 9.05 32.225 10.275Q33.45 11.5 33.45 13.25Q33.45 15.05 32.225 16.275Q31 17.5 29.25 17.5ZM40.8 13.25Q41.45 13.25 41.9 12.775Q42.35 12.3 42.35 11.7Q42.35 11.05 41.9 10.6Q41.45 10.15 40.8 10.15Q40.2 10.15 39.725 10.6Q39.25 11.05 39.25 11.7Q39.25 12.3 39.725 12.775Q40.2 13.25 40.8 13.25ZM40.85 15.4Q39.3 15.4 38.2 14.3Q37.1 13.2 37.1 11.7Q37.1 10.15 38.2 9.075Q39.3 8 40.8 8Q42.35 8 43.425 9.075Q44.5 10.15 44.5 11.65Q44.5 13.2 43.425 14.3Q42.35 15.4 40.85 15.4ZM33.95 7Q32.85 7 32.075 6.225Q31.3 5.45 31.3 4.35Q31.3 3.2 32.075 2.45Q32.85 1.7 33.95 1.7Q35.1 1.7 35.85 2.475Q36.6 3.25 36.6 4.35Q36.6 5.45 35.825 6.225Q35.05 7 33.95 7ZM7.05 47.35Q4.55 47.35 2.775 45.6Q1 43.85 1 41.35V28.7Q1 27.45 1.5 26.325Q2 25.2 2.95 24.3L17.8 10.2L19.9 12.45Q20.3 12.95 20.35 13.575Q20.4 14.2 20.1 14.75L16.8 20.6H38.15Q39.1 20.6 39.725 21.3Q40.35 22 40.35 22.95Q40.35 23.95 39.675 24.625Q39 25.3 38 25.3H23.55V27.95H42.2Q43.2 27.95 43.875 28.65Q44.55 29.35 44.55 30.35Q44.55 31.3 43.875 31.975Q43.2 32.65 42.2 32.65H23.55V35.3H40.1Q41.1 35.3 41.775 36Q42.45 36.7 42.45 37.7Q42.45 38.65 41.775 39.325Q41.1 40 40.1 40H23.55V42.65H35.9Q36.9 42.65 37.575 43.35Q38.25 44.05 38.25 45.05Q38.25 46 37.575 46.675Q36.9 47.35 35.9 47.35Z"/></svg>
